!!!OTL: Kindelwiegenlied
!!!ARE: Europa, Mitteleuropa, Deutschland
!!!SCT: A0522
!!!YEM: Copyright 1995, estate of Helmut Schaffrath.
**kern
*ICvox
*Ivox
*M3/2
*k[b-]
*F:
{2f
=1
1f
2f
=2
1cc
2ff
=3
2ee
2ff
2dd
=4
1cc}
{2ff
=5
2.gg
4ff
4ee
4dd
=6
1cc
2cc
=7
1dd
2dd
=8
2dd
2cc
2b-
=9
2a
2dd
4cc
4b-
=10
1a}
{2a
=11
2g
2cc
4cc
4bn
=12
1cc
2a
=13
1f
2g
=14
1a}
{2a
=15
2dd
2cc
4b-
4b-
=16
1a
2a
=17
2dd
2cc
2b-
=18
1a
2a
=19
2g
2cc
4cc
4bn
=20
1cc}
==
!!!AGN: Romanze, Ballade, Lied, religioeses Lied
!! Andernacher Gsgb. 1608 S. 24
!!!ONB: ESAC (Essen Associative Code) Database: ALTDEU
!!!AMT: simple triple
!!!AIN: vox
!!!EED: Helmut Schaffrath
!!!EEV: 1.0
*-
